X:1
T:Title
%%score ( 1 2 ) { 3 | 4 }
L:1/8
Q:1/4=93
M:6/8
K:F
V:1 treble nm="Grand Piano, Soprano"
V:2 treble 
V:3 treble nm="Choir Pad, It Never Shall Pass Away"
V:4 bass 
V:1
 F/[FG]/ [FA]2 [FA][FA][CG] | [CF] [FA]2 [FA] [FA]2 | [FB] [Fc]2 [Fc][Fd][Fc] | %3
w: By~Charles~Hutchinson~Gabriel * * * * *|||
 [FA] [FA]2 [EG] [EG]2 | [FA] [GB]2 [GB][GB][FA] | [EG] [FA]2 [FA] [FA]2 | %6
w: |||
 [FA][F=B]<[FB] [FG] [FA]2 | z c2- c2- c/ z/ | [Ed][Fc]<[Fc] [FA] [CF]2 | z A2- A2- A/ z/ | %10
w: ||||
 [_EA][DB]<[DB] [DB] [DF]2 | [B,D] [A,C]2- [A,C]2- [A,C]/ z/ | [A,C][CF]>[B,E] [CF] [EG]2 | %13
w: |||
 [EG][FA]>G [FA] [FB]2 | [Fd][Fc]<[Fc] [EB] [EA]2 | [CG] [CF]2- [CF]3- | [CF]3 z3 |] %17
w: ||||
V:2
 x6 | x6 | x6 | x6 | x6 | x6 | x6 | [F=B] E2 F G2 | x6 | [EG] F2 F F2 | x6 | x6 | x6 | x6 | x6 | %15
 x6 | x6 |] %17
V:3
 A,/B,/ C2 CCB, | A, C2 C C2 | G, A,2 A,B,A, | C C2 C C2 | C C2 CCC | C C2 C C2 | CD<D =B, C2 | %7
 D C2[K:bass] A, B,2 | B,A,<A,[K:treble] C A,2 | C C2 C C2 | F,F,<F, F, B,2 | F, F,2- F,2- F,/ z/ | %12
 F,A,>G, F,[K:treble] C2 | CC>C C[K:bass] B,2 | B,A,<A, D C2 | B, A,2- A,3- | A,3 z3 |] %17
V:4
 F,/F,/ F,2 F,F,F, | F, F,2 F, F,2 | F, F,2 F,F,F, | F, C,2 C, C,2 | C, C,2 C,C,C, | %5
 C, F,2 F, F,2 | F,D,<D, G, G,2 | G, C,2- C,2- C,/ z/ | C,F,<F, F, F,2 | C, F,2 F, F,2 | %10
 z B,,<B,, B,, B,,2 | B,, F,,2- F,,2- F,,/ z/ | F,,F,,>G,, A,, C,2 | C,F,>E, _E, D,2 | %14
 B,,C,<C, C, C,2 | C, F,2- F,3- | F,3 z3 |] %17

